images/icons/check.svg

<?xml version="1.0" encoding="UTF-8" standalone="no"?>
<svg width="40px" height="40px" viewBox="0 0 40 40" version="1.1" xmlns="http://www.w3.org/2000/svg" xmlns:xlink="http://www.w3.org/1999/xlink" xmlns:sketch="http://www.bohemiancoding.com/sketch/ns">
    <defs></defs>
        <g id="check-01" sketch:type="MSLayerGroup">
            <circle id="Oval-7" fill="currentColor" sketch:type="MSShapeGroup" cx="20" cy="20" r="20"></circle>
            <path d="M29.0105882,11.9985641 L16.4192157,24.2079759 L12.0082353,19.7977798 C11.5486275,19.338172 10.8043137,19.338172 10.3447059,19.7977798 C9.88509804,20.2573877 9.88509804,21.0017014 10.3447059,21.4613092 L15.5745098,26.6911131 C15.8043137,26.9209171 16.1054902,27.0362112 16.4066667,27.0362112 C16.7015686,27.0362112 16.9964706,26.9256229 17.2247059,26.7044465 L30.6482353,13.6879759 C31.1141176,13.2354269 31.1258824,12.4911131 30.6741176,12.0244465 C30.22,11.5569955 29.4764706,11.5467994 29.0105882,11.9985641" id="Fill-2" fill="#FFFFFF" sketch:type="MSShapeGroup" fill="currentColor"></path>
        </g>
        
</svg>

<svg width="40" height="40" viewBox="0 0 40 40" xmlns="http://www.w3.org/2000/svg"><g fill="currentColor"><circle cx="20" cy="20" r="20"/><path d="M29.01 12L16.42 24.207l-4.412-4.41c-.46-.46-1.204-.46-1.663 0-.46.46-.46 1.204 0 1.663l5.23 5.23c.23.23.53.346.832.346.295 0 .59-.11.818-.332l13.423-13.016c.466-.453.478-1.197.026-1.664-.454-.467-1.198-.477-1.663-.025"/></g></svg>
